dist/img/svg/cross.svg

<svg width="18" height="18" viewBox="0 0 18 18" fill="none" xmlns="http://www.w3.org/2000/svg">
<path d="M8.99998 7.11465L15.6 0.514648L17.4853 2.39998L10.8853 8.99998L17.4853 15.6L15.6 17.4853L8.99998 10.8853L2.39998 17.4853L0.514648 15.6L7.11465 8.99998L0.514648 2.39998L2.39998 0.514648L8.99998 7.11465Z" fill="#383838"/>
</svg>

<svg xmlns="http://www.w3.org/2000/svg" width="18" height="18" fill="none"><path fill="#383838" d="m9 7.115 6.6-6.6L17.485 2.4l-6.6 6.6 6.6 6.6-1.885 1.885-6.6-6.6-6.6 6.6L.515 15.6l6.6-6.6-6.6-6.6L2.4.515l6.6 6.6Z"/></svg>
